X: 11271
T: Dutchman's Wee Little Dog, The
R: polka
M: 2/4
K: Aminor
BB Bz|cc cz|^dB cd|e2 c=d|
|:e2 c2|A2 GA|B2 G2|E2 e2|f2 e2|d2 cB|e2 (3EGB|e2 cB|
e2 c2|A2 GA|B2 G2|E2 e2|f2 e2|d2 cB|A2 (3Ace|A2 GA|
B>c B>c|Bc Be|^de fe|^d3 c|B>c B>c|Bc Bc|d>e f>g|1 e2:|2 d>B A>F||
E2 (3EGB|e2 c2|A2 GA|B2 G2|E2 e2|f2 e2|d2 cB|ee/e/ ee|
e2 cd|e2 c2|A2 GA|BB G2|E2 e2|f2 e2|d2 cB|A2 AA||

